www/assets/icons/4g_mobiledata.svg

<svg xmlns="http://www.w3.org/2000/svg" width="24" height="24" viewBox="0 0 24 24" fill='currentColor'><path d="M9 7H7v5H5V7H3v7h4v3h2v-3h2v-2H9zm8 4v2h2v2h-5V9h7c0-1.1-.9-2-2-2h-5c-1.1 0-2 .9-2 2v6c0 1.1.9 2 2 2h5c1.1 0 2-.9 2-2v-4z"/></svg>

<svg width="24" height="24" viewBox="0 0 24 24" xmlns="http://www.w3.org/2000/svg" fill='currentColor'><path d="M9 7H7V12H5V7H3V14H7V17H9V14H11V12H9V7ZM17 11V13H19V15H14V9H21C21 7.9 20.1 7 19 7H14C12.9 7 12 7.9 12 9V15C12 16.1 12.9 17 14 17H19C20.1 17 21 16.1 21 15V11H17Z"/></svg>
